X:1
T:The HON. RAMSAY MAULE'S MARCH.
T:The HON. RAMSAY MAULE'S MARCH.
T:Nathaniel Gow.
C:Nathaniel Gow.
L:1/8
M:4/4
K:Bb
V:1 treble 
V:1
 F | B2 B>B f3 d | c>dec (BA)(GF) | B2 B>B{Bc} d2 c>B | A>Bcd c>FG>A | B2 B>B f>df>d | %6
 gec>B (BA)(GF) | B2 B>B c>de>c | A>Bc>A [DB]2 :: (B/c/d/e/) | f2 f>f{ga} b2 a>g | %11
 fd g>e (ed)(cB) | f2 f>f g>=eg>b | a>bg>a f2 d>_e | f3/2g/4f/4 d z e3/2f/4e/4 c z | %15
 dBGc (BA)(GF) | B2 B>B e3 d | c>Bc>A [DB]3 :| %18

